xmp_sample.xmp
<?xpacket begin="﻿" id="W5M0MpCehiHzreSzNTczkc9d"?>
<x:xmpmeta xmlns:x="adobe:ns:meta/" x:xmptk="Adobe XMP Core 7.0-c000 1.000000, 0000/00/00-00:00:00        ">
 <rdf:RDF xmlns:rdf="http://www.w3.org/1999/02/22-rdf-syntax-ns#">
  <rdf:Description rdf:about=""
    xmlns:xmp="http://ns.adobe.com/xap/1.0/"
    xmlns:dc="http://purl.org/dc/elements/1.1/"
    xmlns:aux="http://ns.adobe.com/exif/1.0/aux/"
    xmlns:photoshop="http://ns.adobe.com/photoshop/1.0/"
    xmlns:xmpMM="http://ns.adobe.com/xap/1.0/mm/"
    xmlns:stEvt="http://ns.adobe.com/xap/1.0/sType/ResourceEvent#"
    xmlns:stRef="http://ns.adobe.com/xap/1.0/sType/ResourceRef#"
    xmlns:crs="http://ns.adobe.com/camera-raw-settings/1.0/"
    xmlns:tiff="http://ns.adobe.com/tiff/1.0/"
    xmlns:exif="http://ns.adobe.com/exif/1.0/"
   xmp:CreatorTool="Adobe Photoshop Lightroom Classic 11.1 (Macintosh)"
   xmp:CreateDate="2019-05-30T18:25:43.15+01:00"
   xmp:ModifyDate="2022-02-08T02:20:20+01:00"
   xmp:MetadataDate="2022-02-08T02:20:20+01:00"
   dc:format="image/png"
   aux:SerialNumber="8001058"
   aux:LensInfo="180/10 1400/10 35/10 56/10"
   aux:Lens="18.0-140.0 mm f/3.5-5.6"
   aux:LensID="160"
   aux:ImageNumber="12626"
   aux:ApproximateFocusDistance="562/100"
   aux:DistortionCorrectionAlreadyApplied="True"
   aux:LateralChromaticAberrationCorrectionAlreadyApplied="True"
   aux:VignetteCorrectionAlreadyApplied="True"
   photoshop:DateCreated="2019-05-30T18:25:43.15+01:00"
   xmpMM:DocumentID="xmp.did:975b1b25-ba1e-4cf3-8d6e-76a6aab35eae"
   xmpMM:PreservedFileName="_DSC0220.NEF"
   xmpMM:OriginalDocumentID="4066B1C1726872B091D7A80D810C1C9B"
   xmpMM:InstanceID="xmp.iid:975b1b25-ba1e-4cf3-8d6e-76a6aab35eae"
   crs:RawFileName="_DSC0220.NEF"
   crs:Version="14.1"
   crs:ProcessVersion="11.0"
   crs:WhiteBalance="As Shot"
   crs:Temperature="4800"
   crs:Tint="+6"
   crs:Exposure2012="-0.25"
   crs:Contrast2012="+63"
   crs:Highlights2012="-25"
   crs:Shadows2012="-55"
   crs:Whites2012="+28"
   crs:Blacks2012="+15"
   crs:Texture="0"
   crs:Clarity2012="0"
   crs:Dehaze="0"
   crs:ParametricShadows="0"
   crs:ParametricDarks="0"
   crs:ParametricLights="0"
   crs:ParametricHighlights="0"
   crs:ParametricShadowSplit="25"
   crs:ParametricMidtoneSplit="50"
   crs:ParametricHighlightSplit="75"
   crs:Sharpness="40"
   crs:SharpenRadius="+1.0"
   crs:SharpenDetail="25"
   crs:SharpenEdgeMasking="0"
   crs:LuminanceSmoothing="0"
   crs:ColorNoiseReduction="25"
   crs:ColorNoiseReductionDetail="50"
   crs:ColorNoiseReductionSmoothness="50"
   crs:GrayMixerRed="0"
   crs:GrayMixerOrange="0"
   crs:GrayMixerYellow="+21"
   crs:GrayMixerGreen="0"
   crs:GrayMixerAqua="+100"
   crs:GrayMixerBlue="-54"
   crs:GrayMixerPurple="0"
   crs:GrayMixerMagenta="0"
   crs:SplitToningShadowHue="0"
   crs:SplitToningShadowSaturation="0"
   crs:SplitToningHighlightHue="0"
   crs:SplitToningHighlightSaturation="0"
   crs:SplitToningBalance="0"
   crs:ColorGradeMidtoneHue="0"
   crs:ColorGradeMidtoneSat="0"
   crs:ColorGradeShadowLum="0"
   crs:ColorGradeMidtoneLum="0"
   crs:ColorGradeHighlightLum="0"
   crs:ColorGradeBlending="50"
   crs:ColorGradeGlobalHue="0"
   crs:ColorGradeGlobalSat="0"
   crs:ColorGradeGlobalLum="0"
   crs:AutoLateralCA="1"
   crs:LensProfileEnable="1"
   crs:LensManualDistortionAmount="0"
   crs:VignetteAmount="0"
   crs:PerspectiveUpright="0"
   crs:PerspectiveVertical="0"
   crs:PerspectiveHorizontal="0"
   crs:PerspectiveRotate="0.0"
   crs:PerspectiveAspect="0"
   crs:PerspectiveScale="100"
   crs:PerspectiveX="0.00"
   crs:PerspectiveY="0.00"
   crs:GrainAmount="0"
   crs:PostCropVignetteAmount="0"
   crs:ShadowTint="0"
   crs:RedHue="0"
   crs:RedSaturation="0"
   crs:GreenHue="0"
   crs:GreenSaturation="0"
   crs:BlueHue="0"
   crs:BlueSaturation="0"
   crs:OverrideLookVignette="False"
   crs:ToneCurveName2012="Custom"
   crs:CameraProfile="Adobe Standard"
   crs:CameraProfileDigest="F6D26265CE67514B4D14E03F741FE4B6"
   crs:LensProfileSetup="LensDefaults"
   crs:LensProfileName="Adobe (Nikon AF-S DX NIKKOR 18-140mm f/3.5-5.6G ED VR)"
   crs:LensProfileFilename="NIKON D300 (Nikon AF-S DX NIKKOR 18-140mm f3.5-5.6G ED VR) - RAW.lcp"
   crs:LensProfileDigest="97B4EC0D145AB7BB57C5730C74280218"
   crs:LensProfileIsEmbedded="False"
   crs:LensProfileDistortionScale="100"
   crs:LensProfileVignettingScale="100"
   crs:ToggleStyleDigest="B5217C8386FEFBEB46D41DB1B1AFF8EC"
   crs:ToggleStyleAmount="1"
   crs:HasSettings="True"
   crs:CropTop="0.039973"
   crs:CropLeft="0.011104"
   crs:CropBottom="0.960027"
   crs:CropRight="0.988896"
   crs:CropAngle="-1.59004"
   crs:CropConstrainToWarp="0"
   crs:HasCrop="True"
   crs:AlreadyApplied="True"
   tiff:Make="NIKON CORPORATION"
   tiff:Model="NIKON D7500"
   tiff:XResolution="300/1"
   tiff:YResolution="300/1"
   tiff:ResolutionUnit="2"
   exif:ExifVersion="0231"
   exif:ExposureTime="1/100"
   exif:ShutterSpeedValue="6643856/1000000"
   exif:FNumber="14/1"
   exif:ApertureValue="761471/100000"
   exif:ExposureProgram="4"
   exif:SensitivityType="2"
   exif:RecommendedExposureIndex="100"
   exif:ExposureBiasValue="0/6"
   exif:MaxApertureValue="39/10"
   exif:MeteringMode="5"
   exif:LightSource="0"
   exif:FocalLength="260/10"
   exif:SensingMethod="2"
   exif:FileSource="3"
   exif:SceneType="1"
   exif:FocalLengthIn35mmFilm="39"
   exif:CustomRendered="0"
   exif:ExposureMode="0"
   exif:WhiteBalance="0"
   exif:SceneCaptureType="0"
   exif:GainControl="0"
   exif:Contrast="0"
   exif:Saturation="0"
   exif:Sharpness="0"
   exif:SubjectDistanceRange="0"
   exif:FocalPlaneXResolution="77588412/32768"
   exif:FocalPlaneYResolution="77588412/32768"
   exif:FocalPlaneResolutionUnit="3"
   exif:DateTimeOriginal="2019-05-30T18:25:43.15+01:00">
   <dc:creator>
    <rdf:Seq>
     <rdf:li>OLAF YANG</rdf:li>
    </rdf:Seq>
   </dc:creator>
   <xmpMM:History>
    <rdf:Seq>
     <rdf:li
      stEvt:action="derived"
      stEvt:parameters="converted from image/x-nikon-nef to image/png, saved to new location"/>
     <rdf:li
      stEvt:action="saved"
      stEvt:instanceID="xmp.iid:975b1b25-ba1e-4cf3-8d6e-76a6aab35eae"
      stEvt:when="2022-02-08T02:20:20+01:00"
      stEvt:softwareAgent="Adobe Photoshop Lightroom Classic 11.1 (Macintosh)"
      stEvt:changed="/"/>
    </rdf:Seq>
   </xmpMM:History>
   <xmpMM:DerivedFrom
    stRef:documentID="4066B1C1726872B091D7A80D810C1C9B"
    stRef:originalDocumentID="4066B1C1726872B091D7A80D810C1C9B"/>
   <crs:ToneCurvePV2012>
    <rdf:Seq>
     <rdf:li>0, 0</rdf:li>
     <rdf:li>109, 96</rdf:li>
     <rdf:li>255, 255</rdf:li>
    </rdf:Seq>
   </crs:ToneCurvePV2012>
   <crs:ToneCurvePV2012Red>
    <rdf:Seq>
     <rdf:li>0, 0</rdf:li>
     <rdf:li>255, 255</rdf:li>
    </rdf:Seq>
   </crs:ToneCurvePV2012Red>
   <crs:ToneCurvePV2012Green>
    <rdf:Seq>
     <rdf:li>0, 0</rdf:li>
     <rdf:li>255, 255</rdf:li>
    </rdf:Seq>
   </crs:ToneCurvePV2012Green>
   <crs:ToneCurvePV2012Blue>
    <rdf:Seq>
     <rdf:li>0, 0</rdf:li>
     <rdf:li>255, 255</rdf:li>
    </rdf:Seq>
   </crs:ToneCurvePV2012Blue>
   <crs:Look>
    <rdf:Description
     crs:Name="Adobe Monochrome"
     crs:Amount="1"
     crs:UUID="0CFE8F8AB5F63B2A73CE0B0077D20817"
     crs:SupportsAmount="false"
     crs:SupportsMonochrome="false"
     crs:SupportsOutputReferred="false">
    <crs:Group>
     <rdf:Alt>
      <rdf:li xml:lang="x-default">Profiles</rdf:li>
     </rdf:Alt>
    </crs:Group>
    <crs:Parameters>
     <rdf:Description
      crs:Version="14.1"
      crs:ProcessVersion="11.0"
      crs:Clarity2012="+8"
      crs:ConvertToGrayscale="True"
      crs:CameraProfile="Adobe Standard"
      crs:LookTable="73ED6C18DDE909DD7EA2D771F5AC282D">
     <crs:ToneCurvePV2012>
      <rdf:Seq>
       <rdf:li>0, 0</rdf:li>
       <rdf:li>64, 56</rdf:li>
       <rdf:li>128, 128</rdf:li>
       <rdf:li>192, 197</rdf:li>
       <rdf:li>255, 255</rdf:li>
      </rdf:Seq>
     </crs:ToneCurvePV2012>
     <crs:ToneCurvePV2012Red>
      <rdf:Seq>
       <rdf:li>0, 0</rdf:li>
       <rdf:li>255, 255</rdf:li>
      </rdf:Seq>
     </crs:ToneCurvePV2012Red>
     <crs:ToneCurvePV2012Green>
      <rdf:Seq>
       <rdf:li>0, 0</rdf:li>
       <rdf:li>255, 255</rdf:li>
      </rdf:Seq>
     </crs:ToneCurvePV2012Green>
     <crs:ToneCurvePV2012Blue>
      <rdf:Seq>
       <rdf:li>0, 0</rdf:li>
       <rdf:li>255, 255</rdf:li>
      </rdf:Seq>
     </crs:ToneCurvePV2012Blue>
     </rdf:Description>
    </crs:Parameters>
    </rdf:Description>
   </crs:Look>
   <exif:ISOSpeedRatings>
    <rdf:Seq>
     <rdf:li>100</rdf:li>
    </rdf:Seq>
   </exif:ISOSpeedRatings>
   <exif:Flash
    exif:Fired="False"
    exif:Return="0"
    exif:Mode="2"
    exif:Function="False"
    exif:RedEyeMode="False"/>
  </rdf:Description>
 </rdf:RDF>
</x:xmpmeta>
               
<?xpacket end="w"?>
